X: 5013
T: Bretonia
R: reel
M: 4/4
K: Adorian
E|"Am"[eA]A/B/ cA "G"d3e|"F"cAAc "G"BGGE|"Am"[eA]A/B/ cA "G"d3e|"F"c~B"G"AG "Am"A3:|
e|[ec]AA[ec] [eB]d2 c/B/|cAAc BGEG|[ec]AA[ec] [eB]d2c/B/|c[eA][aA][gA][a3A3]:|
e|AA/B/ cB/A/ d3e|{e}cAAc BGGe|AA/B/ cB/A/ d3e|{e}cBA{BA}GA3:|
e|"Am"c/e/e/e/ c/e/e/e/ "G"B/e/e/e/ B/e/e/e/|"F"A/e/e/e/ A/e/e/e/ "G"G/e/e/e/ G/e/e/e/|
"Am"c/e/e/e/ c/e/e/e/ "G"B/e/e/e/ B/e/e/e/|"F"c (3B/c/B/ "G"(3A/B/A/ G "Am"A3:|
e>ecB efg2|d>c BA/B/ c/d/c/B/ G2|c>B AA fge2|d/e/d/c/ B/c/B/G/ A2A2:|

